papirus/16x16/mimetypes/text-x-generic-template.svg

<?xml version="1.0" encoding="UTF-8" standalone="no"?>
<svg id="svg2" xmlns:rdf="http://www.w3.org/1999/02/22-rdf-syntax-ns#" xmlns="http://www.w3.org/2000/svg" height="16px" width="16px" version="1.1" xmlns:cc="http://creativecommons.org/ns#" viewBox="0 0 16 16" xmlns:dc="http://purl.org/dc/elements/1.1/">
 <metadata id="metadata17">
  <rdf:RDF>
   <cc:Work rdf:about="">
    <dc:format>image/svg+xml</dc:format>
    <dc:type rdf:resource="http://purl.org/dc/dcmitype/StillImage"/>
    <dc:title/>
   </cc:Work>
  </rdf:RDF>
 </metadata>
 <path id="path5" fill="#ccc" d="m2.75 1c-0.4172 0-0.75 0.3328-0.75 0.75v13.5c0 0.417 0.3328 0.75 0.75 0.75h10.5c0.418 0 0.75-0.332 0.75-0.75v-9.75l-4.125-0.375-0.375-4.125z"/>
 <path id="path7" fill="#f8f8f0" d="m9.5 1v3.75c0 0.41256 0.33744 0.75 0.75 0.75h3.75z"/>
 <path id="path9" fill-opacity=".2" fill="#fff" d="m2.75 1c-0.4172 0-0.75 0.3328-0.75 0.75v0.6c0-0.4172 0.3328-0.75 0.75-0.75h6.75v-0.6z"/>
 <path id="path4144" opacity=".5" d="m4 7v1h1v-1h-1zm2 0v1h1v-1h-1zm2 0v1h1v-1h-1zm2 0v1h1v-1h-1zm-5 2v1h1v-1h-1zm2 0v1h1v-1h-1zm2 0v1h1v-1h-1zm2 0v1h1v-1h-1zm-7 2v1h1v-1h-1zm2 0v1h1v-1h-1zm2 0v1h1v-1h-1zm2 0v1h1v-1h-1zm-5 2v1h1v-1h-1zm2 0v1h1v-1h-1zm2 0v1h1v-1h-1zm2 0v1h1v-1h-1z"/>
</svg>

<?xml version="1.0" encoding="UTF-8" standalone="no"?>
<svg
   xmlns:dc="http://purl.org/dc/elements/1.1/"
   xmlns:cc="http://creativecommons.org/ns#"
   xmlns:rdf="http://www.w3.org/1999/02/22-rdf-syntax-ns#"
   xmlns:svg="http://www.w3.org/2000/svg"
   xmlns="http://www.w3.org/2000/svg"
   xmlns:sodipodi="http://sodipodi.sourceforge.net/DTD/sodipodi-0.dtd"
   xmlns:inkscape="http://www.inkscape.org/namespaces/inkscape"
   id="svg2"
   height="16px"
   width="16px"
   version="1.1"
   viewBox="0 0 16 16"
   inkscape:version="0.91 r13725"
   sodipodi:docname="text-x-generic-template.svg">
  <defs
     id="defs11" />
  <sodipodi:namedview
     pagecolor="#ffffff"
     bordercolor="#666666"
     borderopacity="1"
     objecttolerance="10"
     gridtolerance="10"
     guidetolerance="10"
     inkscape:pageopacity="0"
     inkscape:pageshadow="2"
     inkscape:window-width="1535"
     inkscape:window-height="876"
     id="namedview9"
     showgrid="false"
     inkscape:zoom="1"
     inkscape:cx="12.48096"
     inkscape:cy="8"
     inkscape:window-x="65"
     inkscape:window-y="24"
     inkscape:window-maximized="1"
     inkscape:current-layer="svg2" />
  <metadata
     id="metadata17">
    <rdf:RDF>
      <cc:Work
         rdf:about="">
        <dc:format>image/svg+xml</dc:format>
        <dc:type
           rdf:resource="http://purl.org/dc/dcmitype/StillImage" />
        <dc:title></dc:title>
      </cc:Work>
    </rdf:RDF>
  </metadata>
  <path
     style="fill:#ebe8d7"
     inkscape:connector-curvature="0"
     d="M 2.75,1 C 2.33276,1 2,1.33276 2,1.75 l 0,13.5 C 2,15.667192 2.332808,16 2.75,16 l 10.5,0 C 13.6676,16 14,15.6676 14,15.25 L 14,5.5 9.875,5.125 9.5,1 Z"
     id="path5" />
  <path
     style="fill:#f8f8f0"
     inkscape:connector-curvature="0"
     d="m 9.5,1 0,3.75 c 0,0.41256 0.33744,0.75 0.75,0.75 l 3.75,0 z"
     id="path7" />
  <path
     style="fill:#ffffff;fill-opacity:0.2"
     inkscape:connector-curvature="0"
     d="M 2.75,1 C 2.33276,1 2,1.33276 2,1.75 l 0,0.6 C 2,1.93276 2.33276,1.6 2.75,1.6 l 6.75,0 0,-0.6 z"
     id="path9" />
  <path
     style="opacity:0.5;fill:#000000;fill-opacity:1"
     d="M 4 7 L 4 8 L 5 8 L 5 7 L 4 7 z M 6 7 L 6 8 L 7 8 L 7 7 L 6 7 z M 8 7 L 8 8 L 9 8 L 9 7 L 8 7 z M 10 7 L 10 8 L 11 8 L 11 7 L 10 7 z M 5 9 L 5 10 L 6 10 L 6 9 L 5 9 z M 7 9 L 7 10 L 8 10 L 8 9 L 7 9 z M 9 9 L 9 10 L 10 10 L 10 9 L 9 9 z M 11 9 L 11 10 L 12 10 L 12 9 L 11 9 z M 4 11 L 4 12 L 5 12 L 5 11 L 4 11 z M 6 11 L 6 12 L 7 12 L 7 11 L 6 11 z M 8 11 L 8 12 L 9 12 L 9 11 L 8 11 z M 10 11 L 10 12 L 11 12 L 11 11 L 10 11 z M 5 13 L 5 14 L 6 14 L 6 13 L 5 13 z M 7 13 L 7 14 L 8 14 L 8 13 L 7 13 z M 9 13 L 9 14 L 10 14 L 10 13 L 9 13 z M 11 13 L 11 14 L 12 14 L 12 13 L 11 13 z "
     id="path4144" />
</svg>
